assets/img/braze_icons/share-05.svg

<svg fill="none" height="24" viewBox="0 0 24 24" width="24" xmlns="http://www.w3.org/2000/svg"><g fill="#801ed7"><path d="m7.7587 2h2.2413c.5523 0 1 .44772 1 1 0 .55229-.4477 1-1 1h-2.2c-.85658 0-1.43887.00078-1.88896.03755-.43842.03582-.66262.10075-.81902.18044-.37632.19174-.68229.49771-.87403.87403-.07969.1564-.14462.3806-.18044.81902-.03677.45009-.03755 1.03238-.03755 1.88896v8.4c0 .8566.00078 1.4389.03755 1.889.03582.4384.10075.6626.18044.819.19174.3763.49771.6823.87403.874.1564.0797.3806.1446.81902.1804.45009.0368 1.03238.0376 1.88896.0376h8.4c.8566 0 1.4389-.0008 1.889-.0376.4384-.0358.6626-.1007.819-.1804.3763-.1917.6823-.4977.874-.874.0797-.1564.1446-.3806.1804-.819.0368-.4501.0376-1.0324.0376-1.889v-2.2c0-.5523.4477-1 1-1s1 .4477 1 1v2.2413c0 .805 0 1.4693-.0442 2.0105-.0459.5621-.1445 1.0788-.3918 1.5642-.3835.7526-.9954 1.3645-1.748 1.748-.4854.2473-1.0021.3459-1.5642.3918-.5412.0442-1.2055.0442-2.0105.0442h-8.48262c-.80496 0-1.46932 0-2.0105-.0442-.5621-.0459-1.07881-.1445-1.56414-.3918-.75265-.3835-1.36457-.9954-1.74806-1.748-.2473-.4854-.34586-1.0021-.39179-1.5642-.04421-.5412-.0442-1.2055-.04419-2.0105v-8.4826c-.00001-.80496-.00002-1.46933.04419-2.01052.04593-.5621.14449-1.07881.39179-1.56414.38349-.75265.99541-1.36457 1.74806-1.74806.48533-.2473 1.00204-.34586 1.56414-.39179.54119-.04421 1.20556-.0442 2.01052-.04419z"/><path d="m18.5858 7-1.2929 1.29289c-.3905.39053-.3905 1.02369 0 1.41422.3905.39049 1.0237.39049 1.4142 0l3-3c.3905-.39053.3905-1.02369 0-1.41422l-3-3c-.3905-.39052-1.0237-.39052-1.4142 0-.3905.39053-.3905 1.02369 0 1.41422l1.2929 1.29289h-.8271c-.805-.00001-1.4693-.00002-2.0105.04419-.5621.04593-1.0788.14449-1.5642.39179-.7526.38349-1.3645.99541-1.748 1.74806-.2473.48533-.3459 1.00204-.3918 1.56414-.0442.54118-.0442 1.20554-.0442 2.01052v1.2413c0 .5523.4477 1 1 1s1-.4477 1-1v-1.2c0-.85658.0008-1.43887.0376-1.88896.0358-.43842.1007-.66262.1804-.81902.1917-.37632.4977-.68228.874-.87403.1564-.07969.3806-.14462.819-.18044.4501-.03677 1.0324-.03755 1.889-.03755z"/></g></svg>

<svg width="24" height="24" viewBox="0 0 24 24" fill="none" xmlns="http://www.w3.org/2000/svg">
<path d="M7.7587 2H10C10.5523 2 11 2.44772 11 3C11 3.55229 10.5523 4 10 4H7.8C6.94342 4 6.36113 4.00078 5.91104 4.03755C5.47262 4.07337 5.24842 4.1383 5.09202 4.21799C4.7157 4.40973 4.40973 4.7157 4.21799 5.09202C4.1383 5.24842 4.07337 5.47262 4.03755 5.91104C4.00078 6.36113 4 6.94342 4 7.8V16.2C4 17.0566 4.00078 17.6389 4.03755 18.089C4.07337 18.5274 4.1383 18.7516 4.21799 18.908C4.40973 19.2843 4.7157 19.5903 5.09202 19.782C5.24842 19.8617 5.47262 19.9266 5.91104 19.9624C6.36113 19.9992 6.94342 20 7.8 20H16.2C17.0566 20 17.6389 19.9992 18.089 19.9624C18.5274 19.9266 18.7516 19.8617 18.908 19.782C19.2843 19.5903 19.5903 19.2843 19.782 18.908C19.8617 18.7516 19.9266 18.5274 19.9624 18.089C19.9992 17.6389 20 17.0566 20 16.2V14C20 13.4477 20.4477 13 21 13C21.5523 13 22 13.4477 22 14V16.2413C22 17.0463 22 17.7106 21.9558 18.2518C21.9099 18.8139 21.8113 19.3306 21.564 19.816C21.1805 20.5686 20.5686 21.1805 19.816 21.564C19.3306 21.8113 18.8139 21.9099 18.2518 21.9558C17.7106 22 17.0463 22 16.2413 22H7.75868C6.95372 22 6.28936 22 5.74818 21.9558C5.18608 21.9099 4.66937 21.8113 4.18404 21.564C3.43139 21.1805 2.81947 20.5686 2.43598 19.816C2.18868 19.3306 2.09012 18.8139 2.04419 18.2518C1.99998 17.7106 1.99999 17.0463 2 16.2413V7.7587C1.99999 6.95374 1.99998 6.28937 2.04419 5.74818C2.09012 5.18608 2.18868 4.66937 2.43598 4.18404C2.81947 3.43139 3.43139 2.81947 4.18404 2.43598C4.66937 2.18868 5.18608 2.09012 5.74818 2.04419C6.28937 1.99998 6.95374 1.99999 7.7587 2Z" fill="#801ED7"/>
<path d="M18.5858 7L17.2929 8.29289C16.9024 8.68342 16.9024 9.31658 17.2929 9.70711C17.6834 10.0976 18.3166 10.0976 18.7071 9.70711L21.7071 6.70711C22.0976 6.31658 22.0976 5.68342 21.7071 5.29289L18.7071 2.29289C18.3166 1.90237 17.6834 1.90237 17.2929 2.29289C16.9024 2.68342 16.9024 3.31658 17.2929 3.70711L18.5858 5L17.7587 5C16.9537 4.99999 16.2894 4.99998 15.7482 5.04419C15.1861 5.09012 14.6694 5.18868 14.184 5.43598C13.4314 5.81947 12.8195 6.43139 12.436 7.18404C12.1887 7.66937 12.0901 8.18608 12.0442 8.74818C12 9.28936 12 9.95372 12 10.7587L12 12C12 12.5523 12.4477 13 13 13C13.5523 13 14 12.5523 14 12V10.8C14 9.94342 14.0008 9.36113 14.0376 8.91104C14.0734 8.47262 14.1383 8.24842 14.218 8.09202C14.4097 7.7157 14.7157 7.40974 15.092 7.21799C15.2484 7.1383 15.4726 7.07337 15.911 7.03755C16.3611 7.00078 16.9434 7 17.8 7H18.5858Z" fill="#801ED7"/>
</svg>
